client/public/img/game/shared/mapPings/airdrop_ping.svg

<?xml version="1.0" encoding="UTF-8" standalone="no"?>
<svg
   width="134"
   height="136"
   viewBox="0 0 134 136"
   fill="none"
   version="1.1"
   id="svg6"
   xmlns="http://www.w3.org/2000/svg"
   xmlns:svg="http://www.w3.org/2000/svg">
  <g
     filter="url(#filter0_d_2273_112)"
     id="g1">
    <path
       d="M67.2225 18.4283C66.8863 18.4276 66.5509 18.423 66.215 18.4283C55.4619 18.5908 44.7661 21.7315 36.6618 27.7803C28.5574 33.8292 23.0756 42.8559 22.9252 54.5249L22.9199 54.9068L50.9318 86.1884L55.9197 82.1826L28.5812 53.8446C30.9249 51.1963 35.0408 49.5981 39.35 49.5857C43.953 49.5686 48.4107 51.2345 50.4979 54.3112L59.0072 81.3883L64.7183 81.4477L56.0793 53.9536C58.1948 51.557 62.6486 49.8113 67.1823 49.6998C71.769 49.5866 76.0514 51.0913 77.9911 54.2911L69.6663 81.289L74.9285 81.329L83.4428 53.9837C86.0894 50.2965 91.4508 49.2168 96.2965 49.8291C98.7332 50.1372 101.002 50.8661 102.591 51.7848C104.055 52.6312 104.667 53.5625 104.796 54.3461L78.8141 81.8503L79.5472 82.5351L82.495 85.28L111.081 55.0806L111.06 54.6536C110.391 42.2744 104.531 33.0501 96.1662 27.0602C88.063 21.2575 77.642 18.4512 67.2225 18.4283ZM58.6683 84.9226C57.0719 84.9992 56.1251 86.2139 55.6157 87.2953C55.0899 88.4117 54.8476 89.7071 54.8476 91.1274V100.38C54.8476 101.8 55.09 103.091 55.6157 104.207C56.1416 105.323 57.1365 106.584 58.8279 106.584H75.1582C76.8496 106.584 77.8497 105.323 78.3754 104.207C78.9013 103.091 79.1435 101.8 79.1435 100.38V91.1274C79.1435 89.7071 78.9011 88.4117 78.3754 87.2953C77.8496 86.179 76.8496 84.9226 75.1582 84.9226H58.6683Z"
       fill="white"
       id="path1" />
  </g>
  <g
     filter="url(#filter1_d_2273_112)"
     id="g2">
    <path
       d="M67 121.094C99.3604 121.094 125.594 94.8604 125.594 62.5C125.594 30.1395 99.3604 3.90625 67 3.90625C34.6395 3.90625 8.40625 30.1395 8.40625 62.5C8.40625 94.8604 34.6395 121.094 67 121.094Z"
       stroke="white"
       stroke-width="7.81"
       stroke-linecap="round"
       stroke-linejoin="round"
       id="path2" />
  </g>
  <defs
     id="defs6">
    <filter
       id="filter0_d_2273_112"
       x="18.9199"
       y="18.4258"
       width="96.1602"
       height="99.1582"
       filterUnits="userSpaceOnUse"
       color-interpolation-filters="sRGB">
      <feFlood
         flood-opacity="0"
         result="BackgroundImageFix"
         id="feFlood2" />
      <feColorMatrix
         in="SourceAlpha"
         type="matrix"
         values="0 0 0 0 0 0 0 0 0 0 0 0 0 0 0 0 0 0 127 0"
         result="hardAlpha"
         id="feColorMatrix2" />
      <feOffset
         dy="7"
         id="feOffset2" />
      <feGaussianBlur
         stdDeviation="2"
         id="feGaussianBlur2" />
      <feColorMatrix
         type="matrix"
         values="0 0 0 0 0 0 0 0 0 0 0 0 0 0 0 0 0 0 0.35 0"
         id="feColorMatrix3" />
      <feBlend
         mode="normal"
         in2="BackgroundImageFix"
         result="effect1_dropShadow_2273_112"
         id="feBlend3" />
      <feBlend
         mode="normal"
         in="SourceGraphic"
         in2="effect1_dropShadow_2273_112"
         result="shape"
         id="feBlend4" />
    </filter>
    <filter
       id="filter1_d_2273_112"
       x="0.500977"
       y="0.00195312"
       width="132.998"
       height="135.996"
       filterUnits="userSpaceOnUse"
       color-interpolation-filters="sRGB">
      <feFlood
         flood-opacity="0"
         result="BackgroundImageFix"
         id="feFlood4" />
      <feColorMatrix
         in="SourceAlpha"
         type="matrix"
         values="0 0 0 0 0 0 0 0 0 0 0 0 0 0 0 0 0 0 127 0"
         result="hardAlpha"
         id="feColorMatrix4" />
      <feOffset
         dy="7"
         id="feOffset4" />
      <feGaussianBlur
         stdDeviation="2"
         id="feGaussianBlur4" />
      <feColorMatrix
         type="matrix"
         values="0 0 0 0 0 0 0 0 0 0 0 0 0 0 0 0 0 0 0.35 0"
         id="feColorMatrix5" />
      <feBlend
         mode="normal"
         in2="BackgroundImageFix"
         result="effect1_dropShadow_2273_112"
         id="feBlend5" />
      <feBlend
         mode="normal"
         in="SourceGraphic"
         in2="effect1_dropShadow_2273_112"
         result="shape"
         id="feBlend6" />
    </filter>
  </defs>
</svg>

<svg xmlns="http://www.w3.org/2000/svg" width="134" height="136" fill="none"><g filter="url(#a)"><path fill="#fff" d="M67.223 18.428c-.337 0-.672-.005-1.008 0-10.753.163-21.449 3.303-29.553 9.352-8.105 6.05-13.586 15.076-13.737 26.745l-.005.382 28.012 31.281 4.988-4.005L28.58 53.845c2.344-2.649 6.46-4.247 10.769-4.26 4.603-.016 9.06 1.65 11.148 4.726l8.51 27.077 5.71.06-8.639-27.494c2.116-2.397 6.57-4.143 11.103-4.254 4.587-.113 8.87 1.391 10.81 4.591L69.665 81.29l5.263.04 8.514-27.345c2.646-3.687 8.008-4.767 12.853-4.155 2.437.308 4.706 1.037 6.295 1.956 1.464.846 2.076 1.778 2.205 2.561L78.814 81.85l.733.685 2.948 2.745 28.586-30.2-.021-.426c-.669-12.38-6.529-21.604-14.894-27.594-8.103-5.802-18.524-8.609-28.943-8.632m-8.555 66.495c-1.596.076-2.543 1.29-3.052 2.372-.526 1.117-.768 2.412-.768 3.832v9.253c0 1.42.242 2.711.768 3.827s1.52 2.377 3.212 2.377h16.33c1.692 0 2.692-1.261 3.217-2.377.526-1.116.769-2.407.769-3.827v-9.253c0-1.42-.243-2.715-.769-3.832-.525-1.116-1.525-2.372-3.217-2.372z"/></g><g filter="url(#b)"><path stroke="#fff" stroke-linecap="round" stroke-linejoin="round" stroke-width="7.81" d="M67 121.094c32.36 0 58.594-26.234 58.594-58.594S99.36 3.906 67 3.906 8.406 30.14 8.406 62.5 34.64 121.094 67 121.094"/></g><defs><filter id="a" width="96.16" height="99.158" x="18.92" y="18.426" color-interpolation-filters="sRGB" filterUnits="userSpaceOnUse"><feFlood flood-opacity="0" result="BackgroundImageFix"/><feColorMatrix in="SourceAlpha" result="hardAlpha" values="0 0 0 0 0 0 0 0 0 0 0 0 0 0 0 0 0 0 127 0"/><feOffset dy="7"/><feGaussianBlur stdDeviation="2"/><feColorMatrix values="0 0 0 0 0 0 0 0 0 0 0 0 0 0 0 0 0 0 0.35 0"/><feBlend in2="BackgroundImageFix" result="effect1_dropShadow_2273_112"/><feBlend in="SourceGraphic" in2="effect1_dropShadow_2273_112" result="shape"/></filter><filter id="b" width="132.998" height="135.996" x=".501" y=".002" color-interpolation-filters="sRGB" filterUnits="userSpaceOnUse"><feFlood flood-opacity="0" result="BackgroundImageFix"/><feColorMatrix in="SourceAlpha" result="hardAlpha" values="0 0 0 0 0 0 0 0 0 0 0 0 0 0 0 0 0 0 127 0"/><feOffset dy="7"/><feGaussianBlur stdDeviation="2"/><feColorMatrix values="0 0 0 0 0 0 0 0 0 0 0 0 0 0 0 0 0 0 0.35 0"/><feBlend in2="BackgroundImageFix" result="effect1_dropShadow_2273_112"/><feBlend in="SourceGraphic" in2="effect1_dropShadow_2273_112" result="shape"/></filter></defs></svg>
